icons/message.svg

<?xml version="1.0" encoding="UTF-8"?>
<svg xmlns="http://www.w3.org/2000/svg" xmlns:xlink="http://www.w3.org/1999/xlink" width="18pt" height="18pt" viewBox="0 0 18 18" version="1.1">
<g id="surface1">
<path style=" stroke:none;fill-rule:nonzero;fill:rgb(100%,100%,100%);fill-opacity:1;" d="M 16.199219 1.800781 L 1.800781 1.800781 C 0.804688 1.800781 0.0078125 2.605469 0.0078125 3.601562 L 0 14.398438 C 0 15.394531 0.804688 16.199219 1.800781 16.199219 L 16.199219 16.199219 C 17.195312 16.199219 18 15.394531 18 14.398438 L 18 3.601562 C 18 2.605469 17.195312 1.800781 16.199219 1.800781 Z M 16.199219 14.398438 L 1.800781 14.398438 L 1.800781 5.398438 L 9 9.898438 L 16.199219 5.398438 Z M 9 8.101562 L 1.800781 3.601562 L 16.199219 3.601562 Z M 9 8.101562 "/>
</g>
</svg>

<svg xmlns="http://www.w3.org/2000/svg" width="24" height="24" viewBox="0 0 18 18"  xmlns:v="https://vecta.io/nano"><path d="M16.199 1.801H1.801c-.996 0-1.793.805-1.793 1.801L0 14.398a1.8 1.8 0 0 0 1.801 1.801h14.398A1.8 1.8 0 0 0 18 14.398V3.602a1.8 1.8 0 0 0-1.801-1.801zm0 12.598H1.801v-9L9 9.898l7.199-4.5zM9 8.102l-7.199-4.5h14.398zm0 0" fill="rgb(100%,100%,100%)"/></svg>
